X: 26081
T: McDonagh's
R: reel
M: 4/4
K: Dmajor
d2fd A2AB|cdeg fedc|dAfd A2(3ABc|dBAa fddA|
dedB A2(3ABc|defg fedc|dafd aaaf|dBAg fddA||
adfd adfd|Aced fdd[bf]|adfd adfd|faaf d2f#g|
adfd Adfd|Acef gfec|defg a2 (3aaf|gfeg fddA||

